X: 2408
T: NANCY TILL
R: hornpipe
B: James Kerr "Merry Melodies" v.2 p.46 #408
Z: 2016 John Chambers <jc:trillian.mit.edu>
M: C
L: 1/8
K: G
|:\
(3GGG B>A G2B2 | c>Bc>e d2g2 |\
(3GGG B>A G>AB>c |[1 d>BA>B G>FE>D :|[2 dBAB G2z2 ||
|:\
(3ddd d2g>dB>c | d>ed>B A>GA>B |\
c>Bc>d e>cA>F |[1 G>AB>c d>cB>c :|[2 A2G2 G2z2 :|

%%sep 1 1 500
%%sep 1 1 500

